svgs/regular/jet-fighter.svg

<svg xmlns="http://www.w3.org/2000/svg" viewBox="0 0 640 512"><!--! Font Awesome Pro 6.4.2 by @fontawesome - https://fontawesome.com License - https://fontawesome.com/license (Commercial License) Copyright 2023 Fonticons, Inc. --><path d="M216 0h23.8 .4H296c13.3 0 24 10.7 24 24s-10.7 24-24 24h-6.9c4.7 6.1 9.8 12.6 15.1 19.6c25.3 32.8 56.8 74.1 81.8 108.4h97.1c5.7 0 11.3 .9 16.7 2.5l108.1 33.8C627 218.3 640 236 640 256s-13 37.7-32.1 43.7L499.8 333.4c-5.4 1.7-11 2.6-16.7 2.6H386L288.5 464H296c13.3 0 24 10.7 24 24s-10.7 24-24 24H240.2h-.5H216 184c-13.3 0-24-10.7-24-24s10.7-24 24-24h8V336H177.9l-31.6 31.6c-10.5 10.5-24.7 16.4-39.6 16.4H88c-30.9 0-56-25.1-56-56V280H24c-13.3 0-24-10.7-24-24s10.7-24 24-24h8V184c0-30.9 25.1-56 56-56h18.7c14.9 0 29.1 5.9 39.6 16.4L177.9 176H192V48h-8c-13.3 0-24-10.7-24-24s10.7-24 24-24h32zm24 176h86.4c-19.9-26.7-41.6-55.1-60.1-79.1C256.3 84 247.3 72.4 240 63V176zM80 280v48c0 4.4 3.6 8 8 8h18.7c2.1 0 4.2-.8 5.7-2.3L151 295c4.5-4.5 10.6-7 17-7H483.1c.8 0 1.6-.1 2.4-.4L586.7 256 485.5 224.4c-.8-.2-1.6-.4-2.4-.4H168c-6.4 0-12.5-2.5-17-7l-38.6-38.6c-1.5-1.5-3.5-2.3-5.7-2.3H88c-4.4 0-8 3.6-8 8v48h56c13.3 0 24 10.7 24 24s-10.7 24-24 24H80zm160 56V448.4L325.6 336H240z"/></svg>

<svg xmlns="http://www.w3.org/2000/svg" viewBox="0 0 640 512"><!--! Font Awesome Pro 6.1.1 by @fontawesome - https://fontawesome.com License - https://fontawesome.com/license (Commercial License) Copyright 2022 Fonticons, Inc. --><path d="M296 .0001C309.3 .0001 320 10.75 320 24C320 37.25 309.3 48 296 48H292.9L386 176H483.1C488.8 176 494.4 176.9 499.8 178.5L607.9 212.3C626.1 218.3 640 235.1 640 256C640 276 626.1 293.7 607.9 299.7L499.8 333.4C494.4 335.1 488.8 336 483.1 336H386L292.9 464H296C309.3 464 320 474.7 320 488C320 501.3 309.3 512 296 512H257.9C250.3 520.5 237.8 522.5 228 516.8C224.5 518.8 220.4 520 216 520C208.9 520 202.5 516.9 198.1 512H184C170.7 512 160 501.3 160 488C160 474.7 170.7 464 184 464H192V336H177.9L146.3 367.6C135.8 378.1 121.6 384 106.7 384H88C57.07 384 32 358.9 32 328V280H24C10.75 280 0 269.3 0 256C0 242.7 10.75 232 24 232H32V184C32 153.1 57.07 128 88 128H106.7C121.6 128 135.8 133.9 146.3 144.4L177.9 176H192V48H184C170.7 48 160 37.25 160 24C160 10.75 170.7 .0001 184 .0001H198.1C202.5-4.91 208.9-7.1 216-7.1C220.4-7.1 224.5-6.831 228-4.788C237.8-10.47 250.3-8.466 257.9 .0001H296zM326.7 176L240 56.8V176H326.7zM326.7 336H240V455.2L326.7 336zM80 280V328C80 332.4 83.58 336 88 336H106.7C108.9 336 110.9 335.2 112.4 333.7L158.1 288H483.1C483.9 288 484.7 287.9 485.5 287.6L586.7 256L485.5 224.4C484.7 224.1 483.9 224 483.1 224H158.1L112.4 178.3C110.9 176.8 108.9 176 106.7 176H88C83.58 176 80 179.6 80 184V232H136C149.3 232 160 242.7 160 256C160 269.3 149.3 280 136 280H80z"/></svg>
